public/home/dao-it/icons/everclear.svg

<svg width="73" height="73" viewBox="0 0 73 73" fill="none" xmlns="http://www.w3.org/2000/svg">
<circle cx="36.5" cy="36.5" r="36.5" fill="#DFE225"/>
<g clip-path="url(#clip0_2623_178)">
<path fill-rule="evenodd" clip-rule="evenodd" d="M34.8279 17.4305L40.5839 14.1594C41.2389 13.7872 41.77 14.089 41.77 14.8335C41.77 15.578 41.2389 16.4832 40.5839 16.8555L34.8279 20.1266C34.1727 20.4988 33.6418 20.1971 33.6418 19.4526C33.6418 18.7081 34.1727 17.8028 34.8279 17.4305ZM34.8279 23.1904L40.5839 19.9193C41.2389 19.547 41.77 19.8488 41.77 20.5933C41.77 21.3378 41.2389 22.2431 40.5839 22.6153L34.8279 25.8864C34.1727 26.2586 33.6418 25.9569 33.6418 25.2124C33.6418 24.4679 34.1727 23.5626 34.8279 23.1904ZM52.9355 50.8326V44.2904C52.9355 43.5459 52.4046 42.6407 51.7495 42.2684C51.0944 41.8962 50.5635 42.1979 50.5635 42.9424V49.4846C50.5635 50.2291 51.0944 51.1344 51.7495 51.5066C52.4046 51.8789 52.9355 51.5771 52.9355 50.8326ZM47.8676 41.4102V47.9524C47.8676 48.6969 47.3365 48.9987 46.6815 48.6264C46.0265 48.2542 45.4954 47.3488 45.4954 46.6043V40.0622C45.4954 39.3177 46.0265 39.016 46.6815 39.3882C47.3365 39.7605 47.8676 40.6657 47.8676 41.4102ZM47.3314 24.5693L37.2004 30.3267C37.1177 30.3736 37.0285 30.4146 36.9345 30.4498L34.8279 31.647C34.1727 32.0192 33.6418 31.7175 33.6418 30.973C33.6418 30.2285 34.1727 29.3231 34.8279 28.951L40.5839 25.6799C40.6666 25.6329 40.7473 25.5966 40.8252 25.5706L44.9594 23.2212C45.6144 22.849 46.6764 22.849 47.3314 23.2212C47.9866 23.5935 47.9866 24.197 47.3314 24.5693ZM51.7526 25.7279L57.5086 28.999C58.1638 29.3713 58.1638 29.9748 57.5086 30.347C56.8536 30.7193 55.7916 30.7193 55.1366 30.347L49.3805 27.076C48.7254 26.7037 48.7254 26.1002 49.3805 25.7279C50.0356 25.3557 51.0976 25.3557 51.7526 25.7279ZM52.4407 31.8792L46.6846 28.6082C46.0295 28.2359 44.9675 28.2359 44.3125 28.6082C43.6575 28.9804 43.6575 29.5839 44.3125 29.9562L50.0685 33.2272C50.7236 33.5995 51.7856 33.5995 52.4407 33.2272C53.0957 32.855 53.0957 32.2515 52.4407 31.8792ZM47.3729 34.7591L41.6169 31.488C40.9619 31.1157 39.8997 31.1157 39.2447 31.488C38.5897 31.8602 38.5897 32.4639 39.2447 32.8361L41.5473 34.1445C41.5691 34.1583 41.5912 34.1715 41.6134 34.1841L51.7444 39.9414C52.3996 40.3137 52.9305 40.0119 52.9305 39.2674C52.9305 38.5229 52.3996 37.6177 51.7444 37.2454L47.4372 34.7977C47.4166 34.7846 47.3951 34.7717 47.3729 34.7591ZM42.7991 38.5302V45.0724C42.7991 45.1668 42.7905 45.2542 42.7744 45.3339V50.0315C42.7744 50.776 42.2433 51.6813 41.5883 52.0535C40.9331 52.4258 40.4022 52.124 40.4022 51.3795V39.8648C40.4022 39.7704 40.4108 39.6733 40.427 39.5752V37.1822C40.427 36.4377 40.958 36.136 41.613 36.5082C42.2681 36.8805 42.7991 37.7857 42.7991 38.5302ZM37.1715 54.5695L31.4155 57.8405C30.7605 58.2128 30.2294 57.911 30.2294 57.1665C30.2294 56.4221 30.7605 55.5168 31.4155 55.1445L37.1715 51.8734C37.8267 51.5013 38.3576 51.803 38.3576 52.5475C38.3576 53.292 37.8267 54.1973 37.1715 54.5695ZM31.4155 52.0801L37.1715 48.8091C37.8267 48.4369 38.3576 47.5315 38.3576 46.787C38.3576 46.0425 37.8267 45.7408 37.1715 46.113L31.4155 49.384C30.7605 49.7563 30.2294 50.6617 30.2294 51.4061C30.2294 52.1506 30.7605 52.4524 31.4155 52.0801ZM38.3576 41.0266C38.3576 41.6577 37.9759 42.4044 37.4606 42.844C37.3854 42.9228 37.2892 42.9967 37.1719 43.0634L27.0407 48.8207C26.3857 49.193 25.3237 49.193 24.6686 48.8207C24.0136 48.4485 24.0136 47.845 24.6686 47.4727L31.2378 43.7395C31.2958 43.6967 31.3551 43.6578 31.4155 43.6236L37.1715 40.3526C37.8267 39.9803 38.3576 40.2821 38.3576 41.0266ZM14.4913 43.0428L20.2474 46.3139C20.9024 46.6861 21.9644 46.6861 22.6195 46.3139C23.2745 45.9416 23.2745 45.3381 22.6195 44.9659L16.8634 41.6948C16.2084 41.3226 15.1463 41.3226 14.4913 41.6948C13.8362 42.0671 13.8362 42.6706 14.4913 43.0428ZM25.3154 43.4337L19.5593 40.1626C18.9043 39.7904 18.9043 39.1869 19.5593 38.8145C20.2144 38.4424 21.2764 38.4424 21.9314 38.8145L27.6875 42.0857C28.3425 42.4579 28.3425 43.0614 27.6875 43.4337C27.0324 43.8059 25.9704 43.8059 25.3154 43.4337ZM20.28 32.1004L30.4111 37.8577C30.4734 37.8931 30.5345 37.9333 30.5943 37.9777L32.7553 39.2057C33.4103 39.5779 33.4103 40.1816 32.7553 40.5537C32.1001 40.9261 31.0381 40.9261 30.3831 40.5537L24.627 37.2827C24.5647 37.2472 24.5084 37.2097 24.4579 37.1707L20.28 34.7964C19.625 34.4241 19.0939 33.5189 19.0939 32.7744C19.0939 32.0299 19.625 31.728 20.28 32.1004ZM19.089 27.7514V21.2093C19.089 20.4647 19.62 20.163 20.2751 20.5352C20.9301 20.9075 21.4611 21.8128 21.4611 22.5573V29.0994C21.4611 29.8439 20.9301 30.1457 20.2751 29.7734C19.62 29.4012 19.089 28.4959 19.089 27.7514ZM24.157 24.0895V30.6316C24.157 31.3761 24.6881 32.2814 25.3431 32.6536C25.9981 33.0259 26.5292 32.7241 26.5292 31.9796V25.4375C26.5292 24.693 25.9981 23.7877 25.3431 23.4155C24.6881 23.0432 24.157 23.345 24.157 24.0895ZM31.5972 20.6202V28.2818L29.225 33.4829V21.9682C29.225 21.2237 29.7561 20.3184 30.4111 19.9462C31.0661 19.5739 31.5972 19.8757 31.5972 20.6202ZM31.5972 28.2818L29.2255 33.5192C29.2289 34.2624 29.7586 35.163 30.4116 35.534C31.0666 35.9063 31.5976 35.6045 31.5976 34.86V28.3179C31.5976 28.3059 31.5974 28.2938 31.5972 28.2818Z" fill="#242424"/>
</g>
<defs>
<clipPath id="clip0_2623_178">
<rect width="44" height="44" fill="white" transform="translate(14 14)"/>
</clipPath>
</defs>
</svg>

<svg viewBox="0 0 73 73" fill="none" xmlns="http://www.w3.org/2000/svg"><circle cx="36.5" cy="36.5" r="36.5" fill="#DFE225"/><g clip-path="url(#a)"><path fill-rule="evenodd" clip-rule="evenodd" d="m34.828 17.43 5.756-3.27c.655-.373 1.186-.071 1.186.674 0 .744-.531 1.65-1.186 2.021l-5.756 3.272c-.655.372-1.186.07-1.186-.674 0-.745.53-1.65 1.186-2.023m0 5.76 5.756-3.27c.655-.373 1.186-.071 1.186.673 0 .745-.531 1.65-1.186 2.022l-5.756 3.271c-.655.373-1.186.07-1.186-.674s.53-1.65 1.186-2.022m18.107 27.643V44.29c0-.744-.53-1.65-1.186-2.022s-1.186-.07-1.186.674v6.543c0 .744.531 1.65 1.186 2.022.656.372 1.186.07 1.186-.674m-5.067-9.423v6.542c0 .745-.532 1.047-1.187.674-.654-.372-1.186-1.277-1.186-2.022v-6.542c0-.744.532-1.046 1.187-.674.654.373 1.186 1.278 1.186 2.022m-.537-16.84-10.13 5.757a2 2 0 0 1-.267.123l-2.106 1.197c-.655.372-1.186.07-1.186-.674s.53-1.65 1.186-2.022l5.756-3.271q.124-.07.241-.11l4.134-2.349c.655-.372 1.717-.372 2.372 0 .656.372.656.976 0 1.348m4.422 1.158 5.756 3.271c.655.372.655.976 0 1.348s-1.717.372-2.372 0l-5.757-3.271c-.655-.372-.655-.976 0-1.348.656-.372 1.718-.372 2.373 0m.688 6.151-5.756-3.27c-.656-.373-1.718-.373-2.373 0-.654.371-.654.975 0 1.347l5.757 3.271c.655.373 1.717.373 2.372 0 .655-.372.655-.975 0-1.348m-5.068 2.88-5.756-3.271c-.655-.372-1.717-.372-2.372 0s-.655.976 0 1.348l2.302 1.309.066.04 10.131 5.756c.656.373 1.187.07 1.187-.674s-.531-1.65-1.187-2.022l-4.307-2.447zm-4.574 3.771v6.542q0 .142-.025.262v4.697c0 .745-.53 1.65-1.186 2.023-.655.372-1.186.07-1.186-.675V39.866q0-.143.025-.29v-2.393c0-.744.531-1.046 1.186-.674s1.186 1.278 1.186 2.022m-5.627 16.04-5.756 3.27c-.655.373-1.187.071-1.187-.674 0-.744.532-1.65 1.187-2.021l5.756-3.272c.655-.372 1.186-.07 1.186.675 0 .744-.531 1.65-1.186 2.021m-5.756-2.49 5.756-3.27c.655-.373 1.186-1.279 1.186-2.023s-.531-1.046-1.186-.674l-5.756 3.271c-.655.372-1.187 1.278-1.187 2.022 0 .745.532 1.046 1.187.674m6.942-11.053c0 .63-.382 1.377-.897 1.817a1.3 1.3 0 0 1-.29.22l-10.13 5.757c-.655.372-1.717.372-2.372 0s-.655-.976 0-1.348l6.569-3.733q.087-.065.178-.116l5.756-3.271c.655-.373 1.186-.07 1.186.674M14.49 43.043l5.756 3.27c.655.373 1.717.373 2.372 0 .656-.371.656-.975 0-1.347l-5.756-3.271c-.655-.372-1.717-.372-2.372 0s-.655.976 0 1.348m10.824.39-5.756-3.27c-.655-.373-.655-.976 0-1.348s1.717-.373 2.372 0l5.756 3.27c.656.373.656.976 0 1.349-.655.372-1.717.372-2.372 0M20.28 32.1l10.131 5.758q.093.053.183.12l2.161 1.228c.655.372.655.976 0 1.348s-1.717.372-2.372 0l-5.756-3.271a2 2 0 0 1-.17-.112l-4.177-2.375c-.655-.372-1.186-1.277-1.186-2.022s.531-1.046 1.186-.674m-1.191-4.349V21.21c0-.744.531-1.046 1.186-.674s1.186 1.278 1.186 2.022V29.1c0 .745-.53 1.047-1.186.674s-1.186-1.277-1.186-2.022m5.068-3.661v6.542c0 .744.531 1.65 1.186 2.022s1.186.07 1.186-.674v-6.542c0-.745-.53-1.65-1.186-2.022-.655-.373-1.186-.071-1.186.674m7.44-3.47v7.662l-2.372 5.2V21.969c0-.744.531-1.65 1.186-2.022s1.186-.07 1.186.674m0 7.662-2.372 5.237c.004.743.534 1.644 1.187 2.015.655.372 1.186.07 1.186-.674v-6.578" fill="#242424"/></g><defs><clipPath id="a"><path fill="#fff" d="M14 14h44v44H14z"/></clipPath></defs></svg>
